src/public/toolService.svg

<svg width="24" height="24" viewBox="0 0 24 24" fill="none" xmlns="http://www.w3.org/2000/svg">
<path d="M23 6.94205C23 6.41657 22.9316 5.90452 22.8032 5.41936C22.6908 4.99286 22.1652 4.89143 21.8548 5.20305L19.7489 7.30867C19.5483 7.50928 19.3101 7.66841 19.0479 7.77697C18.7858 7.88554 18.5048 7.94142 18.2211 7.94142C17.9374 7.94142 17.6564 7.88554 17.3943 7.77697C17.1321 7.66841 16.894 7.50928 16.6933 7.30867C16.4927 7.10807 16.3336 6.86992 16.225 6.60781C16.1164 6.34571 16.0605 6.06479 16.0605 5.78109C16.0605 5.49739 16.1164 5.21647 16.225 4.95437C16.3336 4.69227 16.4927 4.45411 16.6933 4.25351L18.7992 2.14911C19.1109 1.83748 19.0094 1.31199 18.5829 1.19956C17.5371 0.921447 16.4353 0.934243 15.3963 1.23657C14.3573 1.5389 13.4206 2.11927 12.6874 2.91502C11.9542 3.71077 11.4523 4.69166 11.236 5.75179C11.0196 6.81192 11.097 7.911 11.4598 8.93036C11.5466 9.17477 11.4977 9.44851 11.3156 9.6306L1.36667 19.5782C0.877778 20.067 0.877778 20.8602 1.36667 21.3478L2.65244 22.6334C3.14133 23.1222 3.93211 23.1222 4.421 22.6334L14.3699 12.6858C14.5532 12.5025 14.827 12.4536 15.0702 12.5403C15.9666 12.859 16.9264 12.9577 17.8689 12.8281C18.8114 12.6986 19.709 12.3446 20.4861 11.796C21.2633 11.2473 21.8972 10.52 22.3347 9.67536C22.7722 8.83067 23.0003 7.89328 23 6.94205Z" stroke="white" stroke-width="1.5" stroke-linecap="round" stroke-linejoin="round"/>
</svg>

<svg xmlns="http://www.w3.org/2000/svg" width="24" height="24" fill="none" xmlns:v="https://vecta.io/nano"><path d="M23 6.942c0-.525-.068-1.038-.197-1.523-.112-.426-.638-.528-.948-.216l-2.106 2.106a2.16 2.16 0 0 1-1.528.633 2.16 2.16 0 0 1-1.528-.633 2.16 2.16 0 0 1-.633-1.528 2.16 2.16 0 0 1 .633-1.528l2.106-2.104c.312-.312.21-.837-.216-.95a5.94 5.94 0 0 0-5.895 1.715A5.94 5.94 0 0 0 11.46 8.93a.67.67 0 0 1-.144.7l-9.949 9.948a1.25 1.25 0 0 0 0 1.77l1.286 1.286a1.25 1.25 0 0 0 1.769 0l9.949-9.948c.183-.183.457-.232.7-.146a5.94 5.94 0 0 0 5.416-.744A5.94 5.94 0 0 0 23 6.942z" stroke="#fff" stroke-width="1.5" stroke-linejoin="round"/></svg>
